X: 15833
T: Gorman's
R: reel
M: 4/4
K: Dmajor
dB|:ADDD A2dc|(3AcA GB EG (3GFG|ADDD A2dc|(3AcA GE FDD2|
ADDD A2dc|(3AcA (3GBG EFGB|ADDD A2dB|(3cBA GE FDD2:|
|:Addc dfed|cdef gfec|Addc dfed|cAGE FDD2|
Addc dfed|cdef g2 fg|(3agf ge fdcA|GEcE FD D2:|

